X:1
T:Title
%%score 1 { ( 2 4 5 ) | 3 }
L:1/8
Q:1/4=100
M:4/4
K:Eb
V:1 treble nm="Akkordion"
V:2 bass nm="Grand Piano"
V:4 bass 
V:5 bass 
V:3 bass 
V:1
 z8 | z8 | G>G F>F E>E F2 | G>G F>F E2 F2 | G>G A>A B>B c2 | B>B c>c d2 c2 | B2 G2 B4 | G2 E2 G4 | %8
 E>E F>F G>G A2 | B>B c>c d4 | e8 | z8 | z8 | z8 | G>G F>F E>E F2 | G>G F>F E2 F2 | %16
 G>G A>A B>B c2 | B>B c>c d2 c2 | B2 G2 B4 | G2 E2 G4 | E>E F>F G>G A2 | B>B c>c d4 | e8 | z8 | %24
 z8 | z8 | z8 | z8 | z8 | z8 |] %30
V:2
 E,2 B,2 E2 B,2 | E,2 B,2[K:treble] E2 B,2 | [G,B,EG]2 [F,A,DF]2 [G,CE]2 [F,A,DF]2 | %3
w: Maltbie~Babcock * * *|||
 [G,B,EG]2 [F,A,DF]2 [G,CE]2 [F,A,DF]2 | [G,B,EG]2 [A,CFA]2 [B,DGB]2 [CEAc]2 | %5
w: ||
 [B,DGB]2 [CEAc]2 [DFBd]2 [CEAc]2 | [B,EGB]2 [G,B,EG]2 [B,EGB]4 | %7
w: ||
 [G,B,EG]2[K:bass] [E,G,CE]2 [G,B,EG]4 | [E,G,CE]2[K:treble] [F,A,DF]2 [G,B,EG]2 [A,CFA]2 | %9
w: ||
 [B,DGB]2 [CEAc]2 [DFBd]4 | [EGce]2 [EGce]2 [DFBd]2 [CEAc]2 | %11
w: ||
 [B,DGB]2 [A,CFA]2 [G,B,EG]2[K:bass] [F,A,DF]2 | [G,B,E]2 [E,G,C]2 [G,B,E]2 [E,G,C]2 | %13
w: ||
 [B,EG]2 [G,CE]2 [B,EG]2 [G,CE]2 | [G,B,EG]2 [F,A,DF]2 [G,CE]2 [F,A,DF]2 | %15
w: ||
 [G,B,EG]2 [F,A,DF]2 [G,CE]2 [F,A,DF]2 | [G,B,EG]2 [A,CFA]2 [B,DGB]2 [CEAc]2 | %17
w: ||
 [B,DGB]2 [CEAc]2 [DFBd]2 [CEAc]2 | [B,EGB]2 [G,B,EG]2 [B,EGB]4 | %19
w: ||
 [G,B,EG]2[K:bass] [E,G,CE]2 [G,B,EG]4 | [E,G,CE]2[K:treble] [F,A,DF]2 [G,B,EG]2 [A,CFA]2 | %21
w: ||
 [B,DGB]2 [CEAc]2 [DFBd]4 | [EGce]2 [EGce]2 [DFBd]2 [CEAc]2 | %23
w: ||
 [B,DGB]2 [A,CFA]2 [G,B,EG]2[K:bass] [F,A,DF]2 | [G,B,E]2 [E,G,C]2 [G,B,E]2 [E,G,C]2 | %25
w: ||
 [B,EG]2 [G,CE]2 [B,EG]2 [G,CE]2 | [G,EG]8- | [G,EG]8- | [G,EG]8- | [G,EG]8 |] %30
w: |||||
V:3
 E,,2 B,,2 E,2 B,,2 | E,,2 B,,2 E,2 B,,2 | E,,2 B,,2 E,2 B,,2 | E,,2 B,,2 E,2 B,,2 | %4
 E,,2 B,,2 E,2 B,,2 | E,,2 B,,2 E,2 B,,2 | E,,2 B,,2 E,2 B,,2 | E,,2 B,,2 E,2 B,,2 | %8
 E,,2 B,,2 E,2 B,,2 | E,,2 B,,2 E,2 B,,2 | E,,2 B,,2 E,2 B,,2 | E,,2 B,,2 E,2 B,,2 | %12
 E,,2 B,,2 E,2 B,,2 | E,,2 B,,2 E,2 B,,2 | E,,2 B,,2 E,2 B,,2 | E,,2 B,,2 E,2 B,,2 | %16
 E,,2 B,,2 E,2 B,,2 | E,,2 B,,2 E,2 B,,2 | E,,2 B,,2 E,2 B,,2 | E,,2 B,,2 E,2 B,,2 | %20
 E,,2 B,,2 E,2 B,,2 | E,,2 B,,2 E,2 B,,2 | E,,2 B,,2 E,2 B,,2 | E,,2 B,,2 E,2 B,,2 | %24
 E,,2 B,,2 E,2 B,,2 | E,,2 B,,2 E,2 B,,2 | [E,,E,]4 B,,4 | E,4 B,,4 | E,,8- | E,,8 |] %30
V:4
 x8 | x4[K:treble] x4 | x8 | x8 | x8 | x8 | x8 | x2[K:bass] x6 | x2[K:treble] x6 | x8 | x8 | %11
 x6[K:bass] x2 | x8 | x8 | x8 | x8 | x8 | x8 | x8 | x2[K:bass] x6 | x2[K:treble] x6 | x8 | x8 | %23
 x6[K:bass] x2 | x8 | x8 | B,4- [A,B,-]4 | B,4 z4 | E,8- | E,8 |] %30
V:5
 x8 | x4[K:treble] x4 | x8 | x8 | x8 | x8 | x8 | x2[K:bass] x6 | x2[K:treble] x6 | x8 | x8 | %11
 x6[K:bass] x2 | x8 | x8 | x8 | x8 | x8 | x8 | x8 | x2[K:bass] x6 | x2[K:treble] x6 | x8 | x8 | %23
 x6[K:bass] x2 | x8 | x8 | x8 | z4 B,4- | B,8- | B,8 |] %30

